X: 1934
T: Tom's Verandah Waltz
B: australian traditional tunes wiki
M:3/4
L:1/8
R: Waltz
Q: 1/4=100
K:G
V:1 
|:"G"g3f ef|B4Bd|g3f ef|B4Bd|g3f ed|"D7"f4e2|d2A4-|A4de|1
f3e de|A6 |f3e de|A4d2|f3e de|f4e2|"G"d2B4-|B4Bd:|2
f3e de|A6 |f3e de|A4d2|f3e de|"D7"f4e2|"G"d2g4-|g4B2||
"C"c2d2e2|c2d2e2|"G"d6|"Em"B6|"C"E2c4|E2c2d2|"G"B6-|B6|
"C"c2d2e2|c2d2e2|"G"d6|"Em"B4D2|"C"E4"(D7)"F2|"D7"D4F2|"G"G6-|G6||
% abcbook-tune_id 6342d5be1e51591f2dec4542


% abcbook-boost 0
% abcbook-tablature 
% abcbook-transpose 
% abcbook-lastupdated 1665324488812
% abcbook-soundfonts 
% abcbook-repeats 1
% NFF Book 2009

